sprite_icons/cancelled-circle.svg

<?xml version="1.0" encoding="UTF-8" standalone="no"?>
<svg width="16px" height="16px" viewBox="0 0 16 16" version="1.1" xmlns="http://www.w3.org/2000/svg" xmlns:xlink="http://www.w3.org/1999/xlink">
    <!-- Generator: Sketch 48.2 (47327) - http://www.bohemiancoding.com/sketch -->
    <title>icn/cancelled-circle</title>
    <desc>Created with Sketch.</desc>
    <defs>
        <path d="M8,15 C4.13400675,15 1,11.8659932 1,8 C1,4.13400675 4.13400675,1 8,1 C11.8659932,1 15,4.13400675 15,8 C15,11.8659932 11.8659932,15 8,15 Z M8,13 C10.7614237,13 13,10.7614237 13,8 C13,5.23857625 10.7614237,3 8,3 C5.23857625,3 3,5.23857625 3,8 C3,10.7614237 5.23857625,13 8,13 Z M9.59090909,10.8636364 L5.13636364,6.40909091 C4.95454545,6.22727273 4.95454545,5.95454545 5.13636364,5.77272727 L5.77272727,5.13636364 C5.95454545,4.95454545 6.22727273,4.95454545 6.40909091,5.13636364 L10.8636364,9.59090909 C11.0454545,9.77272727 11.0454545,10.0454545 10.8636364,10.2272727 L10.2272727,10.8636364 C10.0454545,11.0454545 9.77272727,11.0454545 9.59090909,10.8636364 Z" id="path-1"></path>
    </defs>
    <g id="Icons" stroke="none" stroke-width="1" fill="none" fill-rule="evenodd">
        <g id="icn/cancelled-circle">
            <mask id="mask-2" fill="white">
                <use xlink:href="#path-1"></use>
            </mask>
            <use id="Combined-Shape" fill="#1F1F1F" fill-rule="nonzero" xlink:href="#path-1"></use>
            <g id="c-fill/greys/$black-::-000000" mask="url(#mask-2)" fill="#000000">
                <rect id="fill/greys/$black-::-000000" x="0" y="0" width="16" height="16"></rect>
            </g>
        </g>
    </g>
</svg>

<svg width="16" height="16" viewBox="0 0 16 16" xmlns="http://www.w3.org/2000/svg" xmlns:xlink="http://www.w3.org/1999/xlink"><defs><path d="M8 15A7 7 0 1 1 8 1a7 7 0 0 1 0 14zm0-2A5 5 0 1 0 8 3a5 5 0 0 0 0 10zm1.59-2.136L5.137 6.409a.44.44 0 0 1 0-.636l.637-.637a.44.44 0 0 1 .636 0l4.455 4.455a.44.44 0 0 1 0 .636l-.637.637a.44.44 0 0 1-.636 0z" id="a"/></defs><g fill="none" fill-rule="evenodd"><mask id="b" fill="#fff"><use xlink:href="#a"/></mask><use fill="#1F1F1F" fill-rule="nonzero" xlink:href="#a"/><g mask="url(#b)" fill="#000"><path d="M0 0h16v16H0z"/></g></g></svg>
